X:44
T:Héma
C:Christophe Comte
R:reel
M:4/4
L:1/8
K:D
BFBc dedB | GDGA B2Bc | dAde f2ed |1 e3d cABd :|2 e3d cBc2 ||
GDGA B2-Bc | dAde f3A | AEAB cBcd | edce dcBG |
GDGA BABc | dAde f2ed | e4 | d3B- B3c | d3B- B3c |]
